!!!SOCIAL_FUNCTION:	war songs
!!!PDT:	1932
!!!OTL: No_126_War_Song.krn
!!!REG: Wisconsin
!!!LANG: Non-Tone
!!!LING_GROUP: Algonquin
**kern
*staff1
=1-
*clefG2
*k[f#]
*M2/4
4r
8.r
16d/
=2
4a/
8.a/L
16f#/Jk
=3
(16e/LK
8.d/J)
8.d/L
16e/Jk
=4
4d/
(16d/LK
8B/)
16B/Jk
=5||
*M3/4
4A/
4A/
8.A/L
16d/Jk
=6||
*M2/4
4d/
16d/LK
8B/
16B/Jk
=7
4E/
8E/
16r
16B/
=8
4A/
8.A/L
16B/Jk
=9
4B/
16B/LK
8.A/J
=10
4A/
8.A/L
16d/Jk
=11
4d/
8.d/L
16B/Jk
=12
4A/
16A/LK
8G/
16G/Jk
=13
4E/
8E/
8r
=14
4E/
4F#/
=15
16F#/LK
8.E/J
4E/
==
*-
